X: 305814
T: COTILLION No. 30. TOM MOORE'S SETT tune 3
C:
%R: march, reel
B: Elias Howe "The Musician's Companion" Part 3 1844 p.143 #1
S: http://imslp.org/wiki/The_Musician's_Companion_(Howe,_Elias)
Z: 2015 John Chambers <jc:trillian.mit.edu>
N: There's an extra 8th-rest at the start of strain 3, not transcribed here.
N: Strain 3 has 14 bars.
M: 2/4
L: 1/8
K: G
% - - - - - - - - - - - - - - - - - - - - - - - - - - - - -
(Bc) |\
dBge | d2Bc | dBAB | G2Bc |\
dBge | d2gb | agfe | d2 H:|\
(df) |\
(gb) gf | e2ed | ca Bg | A2Bd |\
dB ge | d2gb | eag^f | "^D.C."g2 |]
K: Bb
d2 |\
BAGB | dDd2 | BAG=B | czc2 |\
AGFA | BDEF | B,2z2 | (f2b2) |\
(g2e2) | c2f2 | d2B2 | fgab |\
gfec | "^D.C."B2 |]
% - - - - - - - - - - Dance description - - - - - - - - - -
%%begintext align
%% _
%%endtext
% - - - - - - - - - - - - - - - - - - - - - - - - - - - - -
%%sep 1 1 300


